images/illustrations/africa.svg

<svg width="48" height="48" viewBox="0 0 48 48" fill="none" xmlns="http://www.w3.org/2000/svg">
<rect x="28" y="22" width="14" height="22" stroke="#030322" stroke-width="2"/>
<circle cx="35" cy="40" r="1" fill="#030322"/>
<path d="M31 31.5355L32.4142 30.1213L35.9498 33.6568L34.5355 35.0711L31 31.5355Z" fill="#FF0033"/>
<path d="M38.7782 28L40.1924 29.4142L35.2426 34.364L33.8284 32.9497L38.7782 28Z" fill="#FF0033"/>
<path d="M31.6811 22.3871L34.5 19L37 18L39.5 15C39.1009 15.1404 37.975 14.7262 37 14.5C35.9033 14.2455 34.449 14.6579 34 14.5C32.2906 13.8987 32.2213 12.7105 31.6811 11.2813C31.4265 10.6076 31.3702 10.198 31.1067 9.5278C30.7341 8.57997 30.6429 7.93549 29.9578 7.18974C29.4054 6.5885 28.9615 6.38143 28.2345 6.02071C26.4085 5.11477 25.0776 5.15938 23.0645 5.4362C22.1479 5.56224 21.6889 6.0929 20.7667 6.02071C20.0594 5.96535 19.6703 5.77394 19.0434 5.4362C17.9218 4.83203 17.9699 3.43789 16.7456 3.09814C16.0963 2.91795 15.6917 3.02767 15.0223 3.09814C14.1022 3.19498 13.6218 3.45438 12.7245 3.68265C11.8272 3.91092 11.2682 3.87646 10.4267 4.26717C9.69088 4.60883 9.17981 4.77107 8.70341 5.4362C8.28558 6.01955 8.50983 6.58075 8.12897 7.18974L5.8312 10.1123C5.8312 10.1123 4.43477 10.5285 4.10787 11.2813C3.78096 12.0342 4.2065 14.4079 5.25675 15.9575C5.7971 16.7547 6.30708 17.0262 6.98008 17.711C7.20442 17.9393 7.30072 18.1018 7.55452 18.2955C8.12205 18.7286 8.57393 18.7905 9.27785 18.88C9.72306 18.9367 9.9795 18.9164 10.4267 18.88C11.3487 18.805 11.8025 18.3706 12.7245 18.2955C13.1718 18.2591 13.4354 18.1965 13.8734 18.2955C14.3631 18.4062 15.0223 18.88 15.0223 18.88C15.0223 18.88 15.7888 19.5338 16.1712 20.0491C16.8992 21.0301 16.8063 21.8591 17.3201 22.9716C17.5334 23.4336 17.8945 24.1407 17.8945 24.1407C17.8945 24.1407 18.3674 26.2631 18.4689 27.6478C18.5524 28.7859 18.3423 29.4363 18.4689 30.5703C18.6533 32.2215 18.6854 33.2976 19.6178 34.6619C20.4379 35.8619 22.49 37 22.49 37C22.49 37 24.3759 36.5407 25.3623 35.831C26.5351 34.9871 26.8092 34.086 27.66 32.9084C27.7142 32.8334 27.7661 32.7597 27.8161 32.687" stroke="#030322" stroke-width="2" stroke-linejoin="round"/>
</svg>

<svg width="48" height="48" fill="none" xmlns="http://www.w3.org/2000/svg"><path stroke="#030322" stroke-width="2" d="M28 22h14v22H28z"/><circle cx="35" cy="40" r="1" fill="#030322"/><path d="M31 31.535l1.414-1.414 3.536 3.536-1.415 1.414L31 31.536z" fill="#F03"/><path d="M38.778 28l1.414 1.414-4.95 4.95-1.414-1.414 4.95-4.95z" fill="#F03"/><path d="M31.681 22.387L34.5 19l2.5-1 2.5-3c-.4.14-1.525-.274-2.5-.5-1.097-.255-2.551.158-3 0-1.71-.601-1.779-1.79-2.319-3.219-.255-.673-.31-1.083-.574-1.753-.373-.948-.464-1.593-1.15-2.338-.552-.602-.995-.809-1.723-1.17-1.826-.905-3.156-.86-5.17-.584-.916.126-1.375.657-2.297.585-.708-.056-1.097-.247-1.724-.585-1.121-.604-1.073-1.998-2.297-2.338-.65-.18-1.054-.07-1.724 0-.92.097-1.4.356-2.297.585-.898.228-1.457.193-2.298.584-.736.342-1.247.504-1.724 1.17-.417.583-.193 1.144-.574 1.753l-2.298 2.922s-1.396.416-1.723 1.17c-.327.752.099 3.126 1.149 4.675.54.798 1.05 1.07 1.723 1.754.224.228.32.39.575.585.567.433 1.019.495 1.723.584.445.057.701.036 1.149 0 .922-.075 1.376-.51 2.298-.584.447-.037.71-.1 1.148 0 .49.11 1.15.584 1.15.584s.766.654 1.148 1.17c.728.98.635 1.81 1.15 2.922.212.462.573 1.169.573 1.169s.473 2.122.575 3.507c.083 1.138-.127 1.788 0 2.922.184 1.651.216 2.728 1.149 4.092.82 1.2 2.872 2.338 2.872 2.338s1.886-.46 2.872-1.169c1.173-.844 1.447-1.745 2.298-2.923.054-.075.106-.148.156-.221" stroke="#030322" stroke-width="2" stroke-linejoin="round"/></svg>
